!!!!SEGMENT: pl-lzu--m-15111--001-024_noskowski-zygmunt--spiewnik-dla-dzieci-op-34-24-jablonka.krn
!!!cenid: 18xx:4721
!!!COM: Noskowski, Zygmunt
!!!COM-rismID: pe106604
!!!CDT: 1846/05/02-1909/07/23
!!!CNT: Polish
!!!GTL: Śpiewnik dla dzieci, op. 34
!!!OTL: 24. Jabłonka
!!!OMV: 024
!!!PDT: 1890
!!!AGN: Secular; Song; Children
!!!YEC: Copyright 2022 Narodowy Instytut Fryderyka Chopina (https://polishscores.org)
!!!YEM: License CC-BY-4.0 (https://creativecommons.org/licenses/by/4.0)
!!!SMS-siglum: PL-LŹu
!!!SMS-shelfmark: M 15111
!!!SMS-variant:
!!!SMS-altvar:
!!!SMS-shelfwork: 001-024 G
!!!NIFC-rismSourceID: 1001234040
!!!NIFC-rismChildID: 1001234040
!!!NIFC-islandoraID: pl-lzu:5455
!!!URL-pdf-islandora: https://repozytorium.nifc.pl/islandora/object/pl-lzu%3A5455/datastream/PDF/view
!!!URL-scan: https://polish.musicsources.pl/pl/lokalizacje/galeria/druki-muzyczne/23228/30 @EN{Scan on Polish Music Sources Website} @PL{Skany w portalu Dziedzictwo Muzyki Polskiej w otwartym dostępie}
!!!IIIF:
!!!ONB-nifc:
!!!AIN: 1 piano 1 vox
!!!key: E
!!!OMD: Monerato simplice.
**kern	**kern	**dynam	**kern	**text	**dynam
*part2	*part2	*part2	*part1	*part1	*part1
*staff3	*staff2	*staff2,3	*staff1	*staff1	*staff1
*I"[Piano]	*I"[Piano]	*	*I"[Voice]	*	*
*I'pf	*I'pf	*	*I'V	*	*
*Ipiano	*Ipiano	*	*Ivox	*	*
*ICklav	*ICklav	*	*ICvox	*	*
*IGacomp	*IGacomp	*	*IGsolo	*	*
*clefF4	*clefG2	*	*clefG2	*	*
*k[f#c#g#d#]	*k[f#c#g#d#]	*	*k[f#c#g#d#]	*	*
*E:	*E:	*	*E:	*	*
*M6/8	*M6/8	*	*M6/8	*	*
=1	=1	=1	=1	=1	=1
!	!LO:TX:a:i:t=Umiarkowanie, z prostotą.	!	!	!	!
4.E\	(16e/LL 16g#	p	2.r	.	.
.	16B/	.	.	.	.
.	16e/ 16g#	.	.	.	.
.	16B/	.	.	.	.
.	16e/ 16g#	.	.	.	.
.	16B/JJ	.	.	.	.
4.BB/	16e/LL 16g#	.	.	.	.
.	16B/	.	.	.	.
.	16e/ 16g#	.	.	.	.
.	16B/	.	.	.	.
.	16e/ 16g#	.	.	.	.
.	16B/JJ)	.	.	.	.
=2	=2	=2	=2	=2	=2
4.E\	(16e/LL 16g#	.	(8g#/L	Ja-	p
.	16B/	.	.	.	.
.	16f#/ 16a	.	8a/J)	.	.
.	16B/	.	.	.	.
.	16g#/ 16b	.	8b/	-bło-	.
.	16e/JJ	.	.	.	.
4.BB/	16g#/LL 16cc#	.	(8cc#\L	-necz-	.
.	16e/	.	.	.	.
.	16g#/ 16b	.	8b\J)	.	.
.	16e/	.	.	.	.
.	16e/ 16g#	.	8g#/	-ka	.
.	16B/JJ)	.	.	.	.
!!LO:PB:g=original
=3	=3	=3	=3	=3	=3
(4BB\ 4F#	(16d#/LL 16a	.	(4a/	bia-	.
.	16B/	.	.	.	.
.	16d#/ 16a	.	.	.	.
.	16B/	.	.	.	.
8G#\	16d#/ 16g#	.	8g#/)	.	.
.	16B/JJ	.	.	.	.
8A\L	16d#/LL 16f#	.	4f#/	-ła	.
.	16B/	.	.	.	.
8G#\	16d#/ 16f#	.	.	.	.
.	16B/	.	.	.	.
8F#\J)	16d#/ 16f#	.	8r	.	.
.	16B/JJ)	.	.	.	.
=4	=4	=4	=4	=4	=4
4.E\	(16e/LL 16g#	<	(8g#/L	Kwie-	<
.	16B/	.	.	.	.
.	16f#/ 16a	.	8a/J)	.	.
.	16B/	.	.	.	.
.	16g#/ 16b	.	8b/	-ciem	.
.	16e/JJ	[	.	.	.
4.BB/	16g#/LL 16ee	.	(8ee\L	się	[
.	16e/	.	.	.	.
.	16g#/ 16dd#	.	8dd#\J)	.	.
.	16e/	.	.	.	.
.	16g#/ 16cc#	.	8cc#\	o-	.
.	16e/JJ)	.	.	.	.
=5	=5	=5	=5	=5	=5
[4.BB/	(16f#/LL 16dd#	.	(4dd#\	-dzia-	.
.	16d#/	.	.	.	.
.	16f#/ 16dd#	>	.	.	>
.	16d#/	.	.	.	.
.	16f#/ 16cc#	.	8cc#\)	.	.
.	16e/JJ	.	.	.	.
8BB\L]	16f#/LL 16b	.	4b\	-ła,	.
.	16d#/	]	.	.	]
(8G#\	16f#/ 16b	.	.	.	.
.	16d#/	.	.	.	.
8F#\J)	16f#/ 16b	.	8r	.	.
.	16d#/JJ)	.	.	.	.
!!LO:LB:g=original
=6	=6	=6	=6	=6	=6
4.F#\	(16f#/LL 16a#X	mf	(8a#X/L	O-	mf
.	16e/	.	.	.	.
.	16f#/ 16b	.	8b/J)	.	.
.	16e/	.	.	.	.
.	16f#/ 16cc#	.	8cc#\	-bie-	.
.	16e/JJ	.	.	.	.
4.FF#/	16e/LL 16a#	.	(8a#/L	-cu-	.
.	16c#/	.	.	.	.
.	16e/ 16g#	.	8g#/J)	.	.
.	16B/	.	.	.	.
.	16e/ 16f#	.	8f#/	-je	.
.	16A#X/JJ)	.	.	.	.
=7	=7	=7	=7	=7	=7
4.F#\	(16f#/LL 16b	.	(8b\L	nam	.
.	16d#/	.	.	.	.
.	16f#/ 16cc#	.	8cc#\J)	.	.
.	16d#/	.	.	.	.
.	16f#/ 16dd#	.	8dd#\	ja-	.
.	16d#/JJ	.	.	.	.
(4D#\	16f#/LL 16b	>	(8b/L	-błu-	>
.	16B/	.	.	.	.
.	16f#/ 16a#X	.	8a#X/J)	.	.
.	16B/	.	.	.	.
8E\)	16e/ 16g#	]	8g#,/	-szka,	]
.	16B/JJ)	.	.	.	.
=8	=8	=8	=8	=8	=8
!	!	!LO:DY:rj	!	!	!
4.F#\	(16f#/LL	p	4f#/	Jak	p
.	16e/	.	.	.	.
.	16A#X/	.	.	.	.
.	16e/	.	.	.	.
.	16cc#/	.	8cc#\	je	.
.	16e/JJ)	.	.	.	.
4.FF#/	(16f#/LL	.	4f#/	bę-	.
.	16e/	.	.	.	.
.	16A#/	.	.	.	.
.	16e/	.	.	.	.
.	16cc#/	.	8cc#\	-dzie	.
.	16e/JJ)	.	.	.	.
!!LO:LB:g=original
=9	=9	=9	=9	=9	=9
[4.BB/	(16b/LL	.	4.b/	mia-	.
.	16f#/	.	.	.	.
.	16d#/	.	.	.	.
.	16B/	.	.	.	.
.	16d#/	.	.	.	.
.	16f#/JJ)	.	.	.	.
4BB/]	(16an/LL	.	4an/	-ła.	.
.	16f#/	.	.	.	.
.	16d#/	.	.	.	.
.	16B/	.	.	.	.
8r	16d#/	.	8r	.	.
.	16f#/JJ)	.	.	.	.
=10	=10	=10	=10	=10	=10
4.E\	(16e/LL 16g#	.	(8g#/L	Mój	.
.	16B/	.	.	.	.
.	16f#/ 16a	.	8a/J)	.	.
.	16B/	.	.	.	.
.	16g#/ 16b	.	8b/	wie-	.
.	16e/JJ	.	.	.	.
4.BB/	16g#/LL 16cc#	.	(8cc#\L	-trzy-	.
.	16e/	.	.	.	.
.	16g#/ 16b	.	8b\J)	.	.
.	16e/	.	.	.	.
.	16e/ 16g#	.	8g#/	-ku	.
.	16B/JJ)	.	.	.	.
=11	=11	=11	=11	=11	=11
(4BB\ 4F#	(16d#/LL 16a	.	(4a/	mi-	.
.	16B/	.	.	.	.
.	16d#/ 16a	.	.	.	.
.	16B/	.	.	.	.
8G#\	16d#/ 16g#	.	8g#/)	.	.
.	16B/JJ	.	.	.	.
8A\L	16d#/LL 16f#	.	4f#/	-ły,	.
.	16B/	.	.	.	.
8G#\	16d#/ 16f#	.	.	.	.
.	16B/	.	.	.	.
8F#\J)	16d#/ 16f#	.	8r	.	.
.	16B/JJ)	.	.	.	.
!!LO:PB:g=original
=12	=12	=12	=12	=12	=12
4.E\	(16e/LL 16g#	<	(8g#/L	Nie	.
.	16B/	.	.	.	.
.	16f#/ 16a	.	8a/J)	.	.
.	16B/	.	.	.	.
.	16g#/ 16b	[	8b\	wiej	.
.	16e/JJ)	.	.	.	.
4GG#/	(16b\LL 16ee	.	(8ee\L	z ca-	.
.	16e\	>	.	.	.
.	16b\ 16dd#	.	8dd#\J)	.	.
.	16e\	.	.	.	.
8AA/	16a\ 16cc#	.	8cc#\	-łej	.
.	16e\JJ)	]	.	.	.
=13	=13	=13	=13	=13	=13
4.FF#/	(16a/LL 16dd#	.	(4dd#\	si-	.
.	16d#/	<	.	.	.
.	16a/ 16dd#	.	.	.	.
.	16d#/	.	.	.	.
.	16a/ 16cc#	.	8cc#\)	.	.
.	16d#/JJ	.	.	.	.
4.BB/	16a/LL 16b	[	4b\	-ły,	.
.	16d#/	.	.	.	.
.	16a/ 16b	.	.	.	.
.	16d#/	.	.	.	.
.	16a/ 16b	.	8r	.	.
.	16d#/JJ)	.	.	.	.
=14	=14	=14	=14	=14	=14
!	!	!LO:DY:rj	!	!	!LO:DY:rj
4.EE/ 4.E	(16g#/LL 16b	mf	(8b\L	Nie	mf
.	16dn/	.	.	.	.
.	16g#/ 16cc#	.	8cc#\J)	.	.
.	16d/	.	.	.	.
.	16g#/ 16ddn	.	8ddn\	o-	.
.	16d/JJ	.	.	.	.
4.AA/	16e/LL 16cc#	.	(8cc#\L	-trą-	.
.	16c#/	.	.	.	.
.	16e/ 16b	.	8b\J)	.	.
.	16c#/	.	.	.	.
.	16e/ 16a	.	8a/	-caj	.
.	16c#/JJ)	.	.	.	.
!!LO:LB:g=original
=15	=15	=15	=15	=15	=15
4.CC#/ 4.C#	(16e#X/LL 16g#	.	8g#/L	te-	.
.	16b/	.	.	.	.
.	16e#/ 16a	.	8a/J	.	>
.	16B/	>	.	.	.
.	16e#/ 16b	.	8b/	-go	.
.	16B/JJ	.	.	.	.
4.FF#/	16c#/LL 16a	.	(8a/L	kwie-	.
.	16A/	.	.	.	.
.	16c#/ 16g#	.	8g#/J)	.	]
.	16A/	.	.	.	.
.	16c#/ 16f#	]	8f#/	-cia,	.
.	16A/JJ)	.	.	.	.
=16	=16	=16	=16	=16	=16
4.FF#/	(16cc#/LL	p	4cc#\	Że-	p
.	16f#/	.	.	.	.
.	16en/	.	.	.	.
.	16A/	.	.	.	.
.	16f#/	.	8f#/	-by	.
.	16e/JJ)	.	.	.	.
4.BB/	(16cc#/LL	.	4cc#\	jabł-	.
.	16f#/	.	.	.	.
.	16d#/	.	.	.	.
.	16A/	.	.	.	.
.	16d#/	.	8d#/	-ka	.
.	16B/JJ)	.	.	.	.
=17	=17	=17	=17	=17	=17
4.EE/	(16f#/LL	>	4.f#/	by-	>
.	16d#/	.	.	.	.
.	16B/	.	.	.	.
.	16A/	.	.	.	.
.	16d#/	.	.	.	.
.	16B/JJ)	]	.	.	.
4EE/ 4BB	4G#/ 4e	.	4e/	-ły.	]
8r	8r	.	8r	.	.
==	==	==	==	==	==
*-	*-	*-	*-	*-	*-
!!!system-decoration: p1{p2}
!!!RDF**kern: > = above
!!!RDF**kern: < = below
!!!ENC: Andrzej Gręziak
!!!END: 2025-03-05
!!!ENC: Marta Lawrence
!!!END: 2025-03-21
